X:8
T:Robin
R:Scottish
C:Trad.
D:Yogan "La mare au galop"
Z:Eric Forgeot - http://anamnese.fr.st
M:C
L:1/8
Q:1/4=190
K:G
E4 BA FA | E4 AD FA | E4 cA BG | AG FG Ac BA :|
|: EB GB E2 EG | (3FED AF DE FD |
EB GB E2 EG | (3FED AF GE E2 |
EB GB E2 EG | (3FED AF DF AD | 
EB, B,2 EF GE | FA GF GE E2 :|
|: ef (3gfe bg fg | Bg fg af df | 
   ef (3gfe bg fe | fa gf ge e2 |
   ef (3gfe bg fg | Bg fg af df | 
   bg af gf e^c | (3d^cB AF GE E2 :|
